X: 14431
T: Galway Rambler, The
R: reel
M: 4/4
K: Dmajor
D2 AD BDAD|D2 AF EDB,C|DCDE FEFA|dBAF EDB,C|
~D2 AD BDAD|D2 AF EDB,C|DCDE FEFA|dBAF E2 FA||
d3f e3f|defd edBA|d3 f e2ef|dBAF E2 FA|
d3f edef|defd e2de|fded (3Bcd ce|dBAF EDB,C||

